client/src/asserts/icons/icn_arrow-left.svg

<svg width="16" height="16" viewBox="0 0 16 16" fill="none" xmlns="http://www.w3.org/2000/svg">
<path fill-rule="evenodd" clip-rule="evenodd" d="M7.12132 4.70711C7.51184 4.31658 7.51184 3.68342 7.12132 3.29289C6.7308 2.90237 6.09763 2.90237 5.70711 3.29289L1.70711 7.29289C1.31658 7.68342 1.31658 8.31658 1.70711 8.70711L5.70711 12.7071C6.09763 13.0976 6.7308 13.0976 7.12132 12.7071C7.51184 12.3166 7.51184 11.6834 7.12132 11.2929L4.82843 9L14.4142 9C14.9665 9 15.4142 8.55229 15.4142 8C15.4142 7.44772 14.9665 7 14.4142 7L4.82843 7L7.12132 4.70711Z" fill="#4B4B7C"/>
</svg>

<svg width="16" height="16" viewBox="0 0 16 16" xmlns="http://www.w3.org/2000/svg" fill="none"><path fill-rule="evenodd" clip-rule="evenodd" d="M7.121 4.707c.391-.391.391-1.024 0-1.414-.391-.391-1.024-.391-1.414 0l-4 4c-.391.391-.391 1.024 0 1.414l4 4c.391.39 1.024.39 1.414 0 .391-.391.391-1.024 0-1.414l-2.293-2.293h9.586c.552 0 1-.448 1-1s-.448-1-1-1h-9.586l2.293-2.293z" fill="#4B4B7C"/></svg>
